img/icons/printer.svg

<svg width="24" height="24" viewBox="0 0 24 24" fill="none" xmlns="http://www.w3.org/2000/svg">
<path d="M21 10.2H22H21ZM21 14H20H21ZM20.8477 15.7654L19.9238 15.3827L20.8477 15.7654ZM18 16C17.4477 16 17 16.4477 17 17C17 17.5523 17.4477 18 18 18L18 16ZM19.7654 16.8478L19.3827 15.9239L19.7654 16.8478ZM19.9078 7.21799L20.3618 6.32698V6.32698L19.9078 7.21799ZM20.7822 8.09204L21.6732 7.63805L20.7822 8.09204ZM3.21799 8.09204L2.32698 7.63805L2.32698 7.63805L3.21799 8.09204ZM4.0918 7.21799L4.54579 8.10899H4.54579L4.0918 7.21799ZM6.00023 18C6.55251 18 7.00023 17.5523 7.00023 17C7.00023 16.4477 6.55251 16 6.00023 16L6.00023 18ZM4.23486 16.8478L3.85218 17.7717L4.23486 16.8478ZM3.15224 15.7654L4.07612 15.3827L4.07612 15.3827L3.15224 15.7654ZM15 21V22V21ZM9 21V20V21ZM17.9999 18H18.9999H17.9999ZM17.8477 19.7654L18.7715 20.1481L17.8477 19.7654ZM16.7654 20.8478L16.3827 19.9239L16.7654 20.8478ZM16.7654 15.1522L17.1481 14.2284H17.148L16.7654 15.1522ZM17.8477 16.2346L16.9238 16.6173L17.8477 16.2346ZM6.15224 16.2346L5.22836 15.8519V15.8519L6.15224 16.2346ZM7.23486 15.1522L7.61755 16.0761L7.23486 15.1522ZM6.15224 19.7654L7.07612 19.3827L7.07612 19.3827L6.15224 19.7654ZM7.23486 20.8478L7.61755 19.9239L7.23486 20.8478ZM10 10C9.44772 10 9 10.4477 9 11C9 11.5523 9.44772 12 10 12V10ZM14 12C14.5523 12 15 11.5523 15 11C15 10.4477 14.5523 10 14 10V12ZM6 7.00001H5C5 7.26523 5.10536 7.51958 5.29289 7.70712C5.48043 7.89466 5.73478 8.00001 6 8.00001V7.00001ZM18 6.20001H19H18ZM18 7.00001V8.00001C18.5523 8.00001 19 7.5523 19 7.00001H18ZM16.9078 3.21799L17.3618 2.32698V2.32698L16.9078 3.21799ZM17.7822 4.09204L18.6732 3.63805L17.7822 4.09204ZM6.21799 4.09204L5.32698 3.63805L5.32698 3.63805L6.21799 4.09204ZM7.0918 3.21799L7.54579 4.10899L7.54579 4.10899L7.0918 3.21799ZM4 14V10.2H2V14H4ZM6.2002 8H17.8002V6H6.2002V8ZM20 10.2V14H22V10.2H20ZM20 14C20 14.4796 19.9994 14.7892 19.9832 15.0262C19.9677 15.2541 19.941 15.341 19.9238 15.3827L21.7715 16.1481C21.9065 15.8222 21.9561 15.4923 21.9786 15.1625C22.0005 14.8416 22 14.4523 22 14H20ZM18 18C18.4523 18 18.8415 18.0006 19.1624 17.9787C19.4922 17.9562 19.8221 17.9067 20.1481 17.7717L19.3827 15.9239C19.3411 15.9411 19.2542 15.9678 19.0262 15.9833C18.7893 15.9995 18.4796 16 18 16L18 18ZM19.9238 15.3827C19.8222 15.6278 19.6276 15.8225 19.3827 15.9239L20.1481 17.7717C20.8832 17.4671 21.4671 16.883 21.7715 16.1481L19.9238 15.3827ZM17.8002 8C18.3768 8 18.7489 8.00078 19.0321 8.02393C19.3036 8.04611 19.4043 8.08377 19.4538 8.10899L20.3618 6.32698C19.9834 6.13421 19.5904 6.06288 19.1951 6.03057C18.8115 5.99922 18.3437 6 17.8002 6V8ZM22 10.2C22 9.65656 22.0008 9.18875 21.9696 8.80515C21.9373 8.40986 21.8661 8.01654 21.6732 7.63805L19.8912 8.54603C19.9164 8.59536 19.954 8.69598 19.9762 8.96769C19.9993 9.25109 20 9.62336 20 10.2H22ZM19.4538 8.10899C19.6424 8.20508 19.7956 8.35828 19.8912 8.54603L21.6732 7.63805C21.3854 7.07315 20.9258 6.61439 20.3618 6.32698L19.4538 8.10899ZM4 10.2C4 9.62346 4.00078 9.25119 4.02393 8.96785C4.04612 8.69619 4.0838 8.59548 4.10899 8.54603L2.32698 7.63805C2.13419 8.01643 2.06287 8.40964 2.03057 8.80499C1.99922 9.18866 2 9.65646 2 10.2H4ZM6.2002 6C5.65663 6 5.18874 5.99922 4.80498 6.03057C4.40962 6.06286 4.01624 6.13416 3.63781 6.32698L4.54579 8.10899C4.59517 8.08383 4.69595 8.04613 4.9678 8.02393C5.25126 8.00078 5.62365 8 6.2002 8V6ZM4.10899 8.54603C4.205 8.35761 4.35788 8.20474 4.54579 8.10899L3.63781 6.32698C3.07306 6.61473 2.61447 7.07382 2.32698 7.63805L4.10899 8.54603ZM6.00023 16C5.5206 16 5.21097 15.9995 4.97399 15.9833C4.74599 15.9678 4.65916 15.9411 4.61755 15.9239L3.85218 17.7717C4.17811 17.9067 4.50802 17.9562 4.83785 17.9787C5.15869 18.0006 5.54797 18 6.00023 18L6.00023 16ZM2 14C2 14.4523 1.99946 14.8415 2.02135 15.1624C2.04385 15.4922 2.09336 15.8221 2.22836 16.148L4.07612 15.3827C4.05888 15.3411 4.03227 15.2542 4.01671 15.0262C4.00054 14.7893 4 14.4796 4 14H2ZM4.61755 15.9239C4.37233 15.8223 4.17754 15.6275 4.07612 15.3827L2.22836 16.148C2.53292 16.8833 3.11728 17.4673 3.85218 17.7717L4.61755 15.9239ZM9 16H15V14H9V16ZM15 20H9V22H15V20ZM16.9999 18C16.9999 18.4796 16.9994 18.7893 16.9832 19.0262C16.9676 19.2542 16.941 19.3411 16.9238 19.3827L18.7715 20.1481C18.9065 19.8221 18.956 19.4922 18.9785 19.1624C19.0004 18.8415 18.9999 18.4523 18.9999 18H16.9999ZM15 22C15.4522 22 15.8415 22.0005 16.1624 21.9787C16.4922 21.9562 16.8221 21.9067 17.1481 21.7717L16.3827 19.9239C16.3411 19.9411 16.2543 19.9677 16.0263 19.9833C15.7893 19.9995 15.4796 20 15 20V22ZM16.9238 19.3827C16.8222 19.6278 16.6276 19.8225 16.3827 19.9239L17.1481 21.7717C17.8832 21.4671 18.4671 20.883 18.7715 20.1481L16.9238 19.3827ZM15 16C15.4796 16 15.7893 16.0005 16.0262 16.0167C16.2542 16.0323 16.3411 16.0589 16.3827 16.0761L17.148 14.2284C16.8221 14.0934 16.4922 14.0439 16.1624 14.0213C15.8415 13.9995 15.4523 14 15 14V16ZM18.9999 18C18.9999 17.5477 19.0004 17.1585 18.9785 16.8376C18.956 16.5078 18.9065 16.1779 18.7715 15.8519L16.9238 16.6173C16.941 16.6589 16.9676 16.7457 16.9832 16.9738C16.9994 17.2107 16.9999 17.5204 16.9999 18H18.9999ZM16.3827 16.0761C16.6276 16.1776 16.8222 16.3722 16.9238 16.6173L18.7715 15.8519C18.4671 15.1169 17.8832 14.5329 17.1481 14.2284L16.3827 16.0761ZM7 18C7 17.5204 7.00054 17.2107 7.01671 16.9737C7.03227 16.7457 7.05888 16.6589 7.07612 16.6173L5.22836 15.8519C5.09336 16.1779 5.04385 16.5078 5.02135 16.8376C4.99946 17.1585 5 17.5477 5 18H7ZM9 14C8.54775 14 8.15852 13.9995 7.83772 14.0214C7.5079 14.0439 7.17807 14.0934 6.85218 14.2284L7.61755 16.0761C7.65919 16.0589 7.74599 16.0323 7.97389 16.0167C8.2108 16.0005 8.52037 16 9 16V14ZM7.07612 16.6173C7.17752 16.3725 7.3723 16.1777 7.61755 16.0761L6.85218 14.2284C6.11732 14.5328 5.53293 15.1166 5.22836 15.8519L7.07612 16.6173ZM5 18C5 18.4522 4.99946 18.8415 5.02135 19.1624C5.04385 19.4922 5.09336 19.8221 5.22836 20.1481L7.07612 19.3827C7.05888 19.3411 7.03227 19.2542 7.01671 19.0262C7.00054 18.7893 7 18.4796 7 18H5ZM9 20C8.52036 20 8.21079 19.9995 7.97387 19.9833C7.74597 19.9678 7.65918 19.9411 7.61755 19.9239L6.85218 21.7717C7.17809 21.9067 7.50793 21.9562 7.83774 21.9787C8.15853 22.0005 8.54776 22 9 22V20ZM5.22836 20.1481C5.53292 20.8833 6.11729 21.4673 6.85218 21.7717L7.61755 19.9239C7.37233 19.8223 7.17754 19.6275 7.07612 19.3827L5.22836 20.1481ZM10 12H14V10H10V12ZM7 7.00001V6.20001H5V7.00001H7ZM9.2002 4H14.8002V2H9.2002V4ZM17 6.20001V7.00001H19V6.20001H17ZM18 6.00001L6 6.00001V8.00001L18 8.00001V6.00001ZM14.8002 4C15.3768 4 15.7489 4.00078 16.0321 4.02393C16.3036 4.04611 16.4043 4.08377 16.4538 4.10899L17.3618 2.32698C16.9835 2.13421 16.5904 2.06288 16.1951 2.03057C15.8115 1.99922 15.3437 2 14.8002 2V4ZM19 6.20001C19 5.65656 19.0008 5.18875 18.9696 4.80515C18.9373 4.40986 18.8661 4.01654 18.6732 3.63805L16.8912 4.54603C16.9164 4.59536 16.954 4.69598 16.9762 4.96769C16.9993 5.2511 17 5.62336 17 6.20001H19ZM16.4538 4.10899C16.6424 4.20508 16.7956 4.35828 16.8912 4.54603L18.6732 3.63805C18.3854 3.07316 17.9259 2.61439 17.3618 2.32698L16.4538 4.10899ZM7 6.20001C7 5.62346 7.00078 5.25119 7.02393 4.96785C7.04612 4.69619 7.0838 4.59548 7.10899 4.54603L5.32698 3.63805C5.13419 4.01643 5.06287 4.40964 5.03057 4.80499C4.99922 5.18866 5 5.65646 5 6.20001H7ZM9.2002 2C8.65663 2 8.18874 1.99922 7.80498 2.03057C7.40962 2.06286 7.01624 2.13416 6.63781 2.32698L7.54579 4.10899C7.59517 4.08383 7.69595 4.04613 7.9678 4.02393C8.25126 4.00078 8.62365 4 9.2002 4V2ZM7.10899 4.54603C7.205 4.35761 7.35788 4.20474 7.54579 4.10899L6.63781 2.32698C6.07306 2.61473 5.61447 3.07382 5.32698 3.63805L7.10899 4.54603Z" fill="#8C8D92"/>
</svg>

<svg width="24" height="24" fill="none" xmlns="http://www.w3.org/2000/svg"><path d="M21 10.2h1-1Zm0 3.8h-1 1Zm-.152 1.765-.924-.382.924.382ZM18 16a1 1 0 1 0 0 2v-2Zm1.765.848-.382-.924.382.924Zm.143-9.63.454-.891-.454.891Zm.874.874.891-.454-.89.454Zm-17.564 0-.891-.454.891.454Zm.874-.874.454.891-.454-.891ZM6 18a1 1 0 1 0 0-2v2Zm-1.765-1.152-.383.924.383-.924Zm-1.083-1.083.924-.382-.924.382ZM15 21v1-1Zm-6 0v-1 1Zm9-3h1-1Zm-.152 1.765.924.383-.924-.383Zm-1.083 1.083-.382-.924.382.924Zm0-5.696.383-.924-.383.924Zm1.083 1.083-.924.382.924-.382Zm-11.696 0-.924-.383.924.383Zm1.083-1.083.383.924-.383-.924Zm-1.083 4.613.924-.382-.924.382Zm1.083 1.083.383-.924-.383.924ZM10 10a1 1 0 1 0 0 2v-2Zm4 2a1 1 0 1 0 0-2v2ZM6 7H5a1 1 0 0 0 1 1V7Zm12-.8h1-1Zm0 .8v1a1 1 0 0 0 1-1h-1Zm-1.092-3.782.454-.891-.454.891Zm.874.874.891-.454-.89.454Zm-11.564 0-.891-.454.891.454Zm.874-.874.454.891-.454-.891ZM4 14v-3.8H2V14h2Zm2.2-6h11.6V6H6.2v2ZM20 10.2V14h2v-3.8h-2Zm0 3.8c0 .48 0 .79-.017 1.026-.015.228-.042.315-.06.357l1.849.765c.135-.326.184-.656.207-.986.021-.32.021-.71.021-1.162h-2Zm-2 4c.452 0 .841 0 1.162-.021.33-.023.66-.072.986-.207l-.765-1.848c-.042.017-.129.044-.357.06-.237.015-.546.016-1.026.016v2Zm1.924-2.617a1 1 0 0 1-.541.54l.765 1.849a3 3 0 0 0 1.623-1.624l-1.847-.765ZM17.8 8c.577 0 .949 0 1.232.024.272.022.372.06.422.085l.908-1.782c-.379-.193-.772-.264-1.167-.296C18.811 5.999 18.344 6 17.8 6v2Zm4.2 2.2c0-.543 0-1.011-.03-1.395-.033-.395-.104-.788-.297-1.167l-1.782.908c.025.05.063.15.085.422C20 9.25 20 9.623 20 10.2h2Zm-2.546-2.091a1 1 0 0 1 .437.437l1.782-.908a3.001 3.001 0 0 0-1.311-1.311l-.908 1.782ZM4 10.2c0-.577 0-.949.024-1.232.022-.272.06-.373.085-.422l-1.782-.908c-.193.378-.264.772-.296 1.167C1.999 9.189 2 9.656 2 10.2h2ZM6.2 6c-.543 0-1.011 0-1.395.03-.395.033-.789.104-1.167.297l.908 1.782c.05-.025.15-.063.422-.085C5.25 8 5.624 8 6.2 8V6ZM4.11 8.546a1 1 0 0 1 .437-.437l-.908-1.782a3 3 0 0 0-1.311 1.311l1.782.908ZM6 16c-.48 0-.789 0-1.026-.017-.228-.015-.315-.042-.356-.06l-.766 1.849c.326.135.656.184.986.207C5.158 18 5.548 18 6 18v-2Zm-4-2c0 .452 0 .841.021 1.162.023.33.072.66.207.986l1.848-.765c-.017-.042-.044-.129-.06-.357A16.908 16.908 0 0 1 4 14H2Zm2.618 1.924a1 1 0 0 1-.542-.541l-1.848.765a3 3 0 0 0 1.624 1.624l.766-1.848ZM9 16h6v-2H9v2Zm6 4H9v2h6v-2Zm2-2c0 .48 0 .79-.017 1.026-.015.228-.042.315-.06.357l1.849.765a3.07 3.07 0 0 0 .207-.986c.021-.32.02-.71.02-1.162h-2Zm-2 4c.452 0 .841 0 1.162-.021.33-.023.66-.072.986-.207l-.765-1.848c-.042.017-.129.044-.357.06A16.89 16.89 0 0 1 15 20v2Zm1.924-2.617a1 1 0 0 1-.541.54l.765 1.849a3 3 0 0 0 1.623-1.624l-1.847-.765ZM15 16c.48 0 .79 0 1.026.017.228.015.315.042.357.06l.765-1.849a3.072 3.072 0 0 0-.986-.207C15.842 14 15.452 14 15 14v2Zm4 2c0-.452 0-.841-.021-1.162a3.07 3.07 0 0 0-.207-.986l-1.848.765c.017.042.044.129.06.357.015.237.016.546.016 1.026h2Zm-2.617-1.924a1 1 0 0 1 .54.541l1.849-.765a3 3 0 0 0-1.624-1.624l-.765 1.848ZM7 18c0-.48 0-.79.017-1.026.015-.228.042-.315.06-.357l-1.849-.765a3.07 3.07 0 0 0-.207.986C5 17.158 5 17.548 5 18h2Zm2-4c-.452 0-.841 0-1.162.021-.33.023-.66.072-.986.207l.766 1.848c.041-.017.128-.044.356-.06C8.21 16.002 8.52 16 9 16v-2Zm-1.924 2.617a1 1 0 0 1 .542-.54l-.766-1.849a3 3 0 0 0-1.624 1.624l1.848.765ZM5 18c0 .452 0 .841.021 1.162.023.33.072.66.207.986l1.848-.765c-.017-.042-.044-.129-.06-.357A16.908 16.908 0 0 1 7 18H5Zm4 2c-.48 0-.79 0-1.026-.017-.228-.015-.315-.042-.356-.06l-.766 1.849c.326.135.656.184.986.207C8.158 22 8.548 22 9 22v-2Zm-3.772.148a3 3 0 0 0 1.624 1.624l.766-1.848a1 1 0 0 1-.542-.541l-1.848.765ZM10 12h4v-2h-4v2ZM7 7v-.8H5V7h2Zm2.2-3h5.6V2H9.2v2ZM17 6.2V7h2v-.8h-2Zm1-.2H6v2h12V6Zm-3.2-2c.577 0 .949 0 1.232.024.272.022.372.06.422.085l.908-1.782c-.378-.193-.772-.264-1.167-.296C15.812 1.999 15.344 2 14.8 2v2ZM19 6.2c0-.543 0-1.011-.03-1.395-.033-.395-.104-.788-.297-1.167l-1.782.908c.025.05.063.15.085.422C17 5.25 17 5.623 17 6.2h2Zm-2.546-2.091a1 1 0 0 1 .437.437l1.782-.908a3 3 0 0 0-1.311-1.311l-.908 1.782ZM7 6.2c0-.577 0-.949.024-1.232.022-.272.06-.373.085-.422l-1.782-.908c-.193.378-.264.772-.296 1.167C4.999 5.189 5 5.656 5 6.2h2ZM9.2 2c-.543 0-1.011 0-1.395.03-.395.033-.789.104-1.167.297l.908 1.782c.05-.025.15-.063.422-.085C8.25 4 8.624 4 9.2 4V2ZM7.11 4.546a1 1 0 0 1 .437-.437l-.908-1.782a3 3 0 0 0-1.311 1.311l1.782.908Z" fill="#8C8D92"/></svg>
